X:375
T:Sarajevo, Divno Mesto
Z:Jack Campin, http://www.campin.me.uk/
F:Jack Campin's Nine-Note Tunebook
% last edit 03-02-2013
S:Muhamed Zero, Sevdah Bosnjaka, Sarajevo 1995
G:Bosnian Sevdah song
M:3/4
L:1/8
Q:1/4=100
K:GDor
  (EF)     (G3F) |(GA)    (F3    G/A/)|(BA)   (G3F) | (GA)    F4|
  (FG/_A/) (c3=B)|(cd)    (c=B _AG)   |(B_A    A4-  | _A6)     ||
|:(FG/_A/) (c3=B)|(cd/c/) =B4         |(c=B) (_AB2A)|(_AG/F/) G4|
  (cd)     (c3=B)|(_A=B)  (AG   FG)   | G6-         |  G6      :|

